X: 1
T: Polska #6 i D
O: Sweden
R: hambo-polska
Z: 2009 John Chambers <jc:trillian.mit.edu>
S: handwritten notes from the 1970s
M: 3/4
L: 1/8
K: D
|: "D"d>e f>g f>e | d>e (3fgf "A7"e2 | "A7"e>f g>b a>f | "(G)"g<b "A7"a4 :|
|: "D"a>f (3fef d2 | "G"d>B B<A G2 | "A7"E>D C>E A>c |1 "A7"e/f/e/c/ "D"d>f a2 :|2 "A7"e>c "D"d4 |]
